;FLAVOR:Marlin
;TIME:6515
;Filament used: 4.50014m
;Layer height: 0.2
;MINX:82.7
;MINY:82.7
;MINZ:0.2
;MAXX:137.3
;MAXY:138.137
;MAXZ:16
;Generated with Creality Slicer 4.8.2-218
M140 S60
M105
M190 S60
M104 S200
M105
M109 S200
M82 ;absolute extrusion mode

G28 ;Home

G92 E0 ;Reset Extruder
G1 Z2.0 F3000 ;Move Z Axis up
G1 X10.1 Y20 Z0.28 F5000.0 ;Move to start position
G1 X10.1 Y200.0 Z0.28 F1500.0 E15 ;Draw the first line
G1 X10.4 Y200.0 Z0.28 F5000.0 ;Move to side a little
G1 X10.4 Y20 Z0.28 F1500.0 E30 ;Draw the second line
G92 E0 ;Reset Extruder
G1 Z2.0 F3000 ;Move Z Axis up

G92 E0
G92 E0
G1 F3600 E-5
;LAYER_COUNT:80
;LAYER:0
M107
;MESH:idle pully.stl
G0 F6000 X110.218 Y115.9 Z0.2
;TYPE:WALL-INNER
G1 F3600 E0
G1 F1200 X111.075 Y115.804 E0.02868
G1 X111.909 Y115.588 E0.05734
G1 X112.703 Y115.25 E0.08604
G1 X113.429 Y114.805 E0.11436
G1 X114.098 Y114.249 E0.14329
G1 X114.677 Y113.605 E0.1721
G1 X115.15 Y112.885 E0.20075
G1 X115.516 Y112.105 E0.22941
G1 X115.764 Y111.278 E0.25812
G1 X115.888 Y110.426 E0.28676
G1 X115.888 Y109.563 E0.31546
G1 X115.76 Y108.713 E0.34405
G1 X115.517 Y107.895 E0.37243
G1 X115.147 Y107.106 E0.40142
G1 X114.669 Y106.387 E0.43013
G1 X114.092 Y105.745 E0.45884
G1 X113.43 Y105.193 E0.48751
G1 X112.693 Y104.747 E0.51616
G1 X111.9 Y104.41 E0.54482
G1 X111.063 Y104.192 E0.57359
G1 X110.21 Y104.1 E0.60213
G1 X109.357 Y104.13 E0.63051
G1 X108.499 Y104.29 E0.65954
G1 X107.683 Y104.57 E0.68824
G1 X106.915 Y104.966 E0.71698
G1 X106.217 Y105.468 E0.74557
G1 X105.604 Y106.058 E0.77387
G1 X105.071 Y106.749 E0.8029
G1 X104.648 Y107.505 E0.83171
G1 X104.345 Y108.313 E0.86041
G1 X104.159 Y109.15 E0.88893
G1 X104.096 Y110 E0.91728
G1 X104.159 Y110.861 E0.94599
G1 X104.347 Y111.699 E0.97456
G1 X104.654 Y112.505 E1.00324
G1 X105.078 Y113.258 E1.03198
G1 X105.604 Y113.941 E1.06066
G1 X106.226 Y114.539 E1.08935
G1 X106.926 Y115.038 E1.11795
G1 X107.691 Y115.434 E1.1466
G1 X108.509 Y115.712 E1.17533
G1 X109.356 Y115.869 E1.20398
G1 X110.218 Y115.9 E1.23267
G0 F6000 X110.203 Y115.499
G1 F1200 X111.002 Y115.41 E1.25941
G1 X111.78 Y115.208 E1.28615
G1 X112.519 Y114.893 E1.31287
G1 X113.196 Y114.479 E1.33926
G1 X113.82 Y113.96 E1.36625
G1 X114.359 Y113.36 E1.39308
G1 X114.8 Y112.689 E1.41979
G1 X115.141 Y111.962 E1.44649
G1 X115.372 Y111.191 E1.47326
G1 X115.488 Y110.397 E1.49995
G1 X115.488 Y109.593 E1.52669
G1 X115.369 Y108.8 E1.55336
G1 X115.142 Y108.038 E1.57981
G1 X114.797 Y107.303 E1.60681
G1 X114.352 Y106.633 E1.63357
G1 X113.814 Y106.034 E1.66034
G1 X113.197 Y105.52 E1.68705
G1 X112.51 Y105.104 E1.71377
G1 X111.771 Y104.79 E1.74047
G1 X110.991 Y104.587 E1.76728
G1 X110.195 Y104.501 E1.79391
G1 X109.401 Y104.529 E1.82033
G1 X108.601 Y104.678 E1.8474
G1 X107.84 Y104.939 E1.87416
G1 X107.125 Y105.308 E1.90092
G1 X106.474 Y105.776 E1.92759
G1 X105.903 Y106.326 E1.95395
G1 X105.406 Y106.97 E1.98101
G1 X105.012 Y107.674 E2.00784
G1 X104.729 Y108.427 E2.0346
G1 X104.556 Y109.208 E2.0612
G1 X104.497 Y110 E2.08762
G1 X104.556 Y110.802 E2.11437
G1 X104.731 Y111.584 E2.14102
G1 X105.017 Y112.335 E2.16775
G1 X105.412 Y113.037 E2.19454
G1 X105.903 Y113.673 E2.22126
G1 X106.482 Y114.23 E2.24798
G1 X107.135 Y114.696 E2.27467
G1 X107.848 Y115.065 E2.30137
G1 X108.61 Y115.324 E2.32814
G1 X109.4 Y115.47 E2.35486
G1 X110.203 Y115.499 E2.38158
G0 F6000 X110.188 Y115.098
G1 F1200 X110.929 Y115.016 E2.40638
G1 X111.65 Y114.828 E2.43116
G1 X112.335 Y114.536 E2.45593
G1 X112.963 Y114.153 E2.48039
G1 X113.542 Y113.671 E2.50545
G1 X114.041 Y113.115 E2.5303
G1 X114.45 Y112.493 E2.55506
G1 X114.766 Y111.819 E2.57982
G1 X114.98 Y111.104 E2.60464
G1 X115.088 Y110.368 E2.62938
G1 X115.088 Y109.623 E2.65416
G1 X114.978 Y108.887 E2.67891
G1 X114.767 Y108.181 E2.70342
G1 X114.447 Y107.5 E2.72845
G1 X114.035 Y106.878 E2.75326
G1 X113.536 Y106.323 E2.77808
G1 X112.964 Y105.847 E2.80283
G1 X112.327 Y105.461 E2.82761
G1 X111.642 Y105.17 E2.85236
G1 X110.919 Y104.982 E2.87721
G1 X110.18 Y104.902 E2.90193
G1 X109.445 Y104.928 E2.92639
G1 X108.703 Y105.066 E2.95149
G1 X107.997 Y105.308 E2.97632
G1 X107.335 Y105.65 E3.0011
G1 X106.731 Y106.084 E3.02584
G1 X106.202 Y106.594 E3.05028
G1 X105.741 Y107.191 E3.07537
G1 X105.376 Y107.843 E3.10022
G1 X105.113 Y108.541 E3.12503
G1 X104.953 Y109.266 E3.14972
G1 X104.898 Y110 E3.1742
G1 X104.953 Y110.743 E3.19898
G1 X105.115 Y111.469 E3.22372
G1 X105.38 Y112.165 E3.24849
G1 X105.746 Y112.816 E3.27333
G1 X106.201 Y113.405 E3.29809
G1 X106.738 Y113.921 E3.32286
G1 X107.344 Y114.354 E3.34763
G1 X108.005 Y114.696 E3.37238
G1 X108.711 Y114.936 E3.39718
G1 X109.444 Y115.071 E3.42197
G1 X110.188 Y115.098 E3.44674
G0 F6000 X110.173 Y114.697
;TYPE:WALL-OUTER
G1 F1200 X110.856 Y114.622 E3.46959
G1 X111.52 Y114.448 E3.49242
G1 X112.152 Y114.179 E3.51526
G1 X112.73 Y113.827 E3.53777
G1 X113.264 Y113.382 E3.56089
G1 X113.723 Y112.87 E3.58376
G1 X114.1 Y112.297 E3.60658
G1 X114.391 Y111.676 E3.62939
G1 X114.588 Y111.017 E3.65226
G1 X114.688 Y110.339 E3.67506
G1 X114.688 Y109.653 E3.69787
G1 X114.587 Y108.974 E3.72071
G1 X114.392 Y108.324 E3.74328
G1 X114.097 Y107.696 E3.76635
G1 X113.718 Y107.123 E3.7892
G1 X113.258 Y106.612 E3.81207
G1 X112.731 Y106.174 E3.83486
G1 X112.144 Y105.818 E3.8577
G1 X111.513 Y105.55 E3.8805
G1 X110.847 Y105.377 E3.90338
G1 X110.165 Y105.303 E3.9262
G1 X109.489 Y105.327 E3.9487
G1 X108.805 Y105.454 E3.97184
G1 X108.155 Y105.677 E3.99469
G1 X107.545 Y105.992 E4.01753
G1 X106.988 Y106.392 E4.04034
G1 X106.501 Y106.862 E4.06285
G1 X106.076 Y107.412 E4.08596
G1 X105.74 Y108.012 E4.10884
G1 X105.497 Y108.655 E4.1317
G1 X105.35 Y109.324 E4.15448
G1 X105.299 Y110 E4.17703
G1 X105.35 Y110.684 E4.19984
G1 X105.499 Y111.354 E4.22267
G1 X105.743 Y111.995 E4.24548
G1 X106.08 Y112.594 E4.26834
G1 X106.5 Y113.137 E4.29117
G1 X106.994 Y113.613 E4.31399
G1 X107.553 Y114.012 E4.33683
G1 X108.162 Y114.327 E4.35964
G1 X108.812 Y114.548 E4.38247
G1 X109.488 Y114.672 E4.40533
G1 X110.173 Y114.697 E4.42813
G0 F6000 X110.189 Y115.136
G1 F3600 E-0.57187
G0 F6000 X110.226 Y116.091
G0 X110.147 Y113.831
G0 X110.913 Y138.137
G0 X110.844 Y135.864
G0 X110 Y136.1
;TYPE:WALL-INNER
G1 F3600 E4.42813
G1 F1200 X108.393 Y136.05 E4.48161
G1 X106.856 Y135.91 E4.53294
G1 X105.316 Y135.677 E4.58474
G1 X103.736 Y135.336 E4.6385
G1 X102.236 Y134.919 E4.69028
G1 X100.739 Y134.403 E4.74295
G1 X99.321 Y133.814 E4.79402
G1 X97.844 Y133.095 E4.84866
G1 X96.515 Y132.347 E4.89938
G1 X95.162 Y131.471 E4.95299
G1 X93.906 Y130.546 E5.00487
G1 X92.691 Y129.534 E5.05746
G1 X91.546 Y128.454 E5.10981
G1 X90.462 Y127.304 E5.16238
G1 X89.454 Y126.094 E5.21476
G1 X88.529 Y124.838 E5.26664
G1 X87.651 Y123.481 E5.3204
G1 X86.905 Y122.156 E5.37097
G1 X86.201 Y120.709 E5.42449
G1 X85.582 Y119.216 E5.47825
G1 X85.081 Y117.764 E5.52933
G1 X84.662 Y116.257 E5.58136
G1 X84.324 Y114.684 E5.63487
G1 X84.089 Y113.132 E5.68708
G1 X83.95 Y111.607 E5.73801
G1 X83.9 Y110.006 E5.79129
G1 X83.95 Y108.382 E5.84533
G1 X84.089 Y106.869 E5.89586
G1 X84.324 Y105.313 E5.9482
G1 X84.663 Y103.736 E6.00185
G1 X85.082 Y102.232 E6.05378
G1 X85.582 Y100.784 E6.10473
G1 X86.205 Y99.282 E6.15881
G1 X86.905 Y97.844 E6.21201
G1 X87.651 Y96.519 E6.26258
G1 X88.529 Y95.162 E6.31634
G1 X89.454 Y93.906 E6.36822
G1 X90.462 Y92.696 E6.4206
G1 X91.546 Y91.546 E6.47316
G1 X92.691 Y90.466 E6.52551
G1 X93.906 Y89.454 E6.57811
G1 X95.162 Y88.529 E6.62999
G1 X96.519 Y87.651 E6.68375
G1 X97.844 Y86.905 E6.73432
G1 X99.321 Y86.186 E6.78896
G1 X100.739 Y85.597 E6.84003
G1 X102.236 Y85.081 E6.89269
G1 X103.736 Y84.664 E6.94447
G1 X105.316 Y84.323 E6.99823
G1 X106.856 Y84.09 E7.05004
G1 X108.393 Y83.95 E7.10137
G1 X110 Y83.9 E7.15485
G1 X111.607 Y83.95 E7.20832
G1 X113.144 Y84.09 E7.25965
G1 X114.684 Y84.323 E7.31146
G1 X116.264 Y84.664 E7.36522
G1 X117.764 Y85.081 E7.417
G1 X119.261 Y85.597 E7.46966
G1 X120.679 Y86.186 E7.52073
G1 X122.156 Y86.905 E7.57537
G1 X123.481 Y87.651 E7.62595
G1 X124.838 Y88.529 E7.6797
G1 X126.094 Y89.454 E7.73158
G1 X127.309 Y90.466 E7.78418
G1 X128.454 Y91.546 E7.83653
G1 X129.53 Y92.687 E7.88869
G1 X130.546 Y93.906 E7.94147
G1 X131.471 Y95.162 E7.99335
G1 X132.349 Y96.519 E8.04711
G1 X133.095 Y97.844 E8.09768
G1 X133.806 Y99.304 E8.1517
G1 X134.405 Y100.747 E8.20366
G1 X134.921 Y102.242 E8.25626
G1 X135.334 Y103.724 E8.30743
G1 X135.676 Y105.313 E8.36149
G1 X135.911 Y106.869 E8.41383
G1 X136.05 Y108.382 E8.46437
G1 X136.1 Y109.994 E8.51801
G1 X136.05 Y111.607 E8.57168
G1 X135.911 Y113.132 E8.62262
G1 X135.676 Y114.684 E8.67482
G1 X135.338 Y116.257 E8.72834
G1 X134.919 Y117.764 E8.78036
G1 X134.418 Y119.216 E8.83145
G1 X133.799 Y120.709 E8.8852
G1 X133.095 Y122.156 E8.93873
G1 X132.349 Y123.481 E8.9893
G1 X131.471 Y124.838 E9.04306
G1 X130.546 Y126.094 E9.09494
G1 X129.538 Y127.304 E9.14732
G1 X128.454 Y128.454 E9.19988
G1 X127.309 Y129.534 E9.25223
G1 X126.094 Y130.546 E9.30482
G1 X124.838 Y131.471 E9.35671
G1 X123.485 Y132.347 E9.41032
G1 X122.156 Y133.095 E9.46104
G1 X120.679 Y133.814 E9.51568
G1 X119.261 Y134.403 E9.56674
G1 X117.764 Y134.919 E9.61941
G1 X116.264 Y135.336 E9.67119
G1 X114.684 Y135.677 E9.72495
G1 X113.144 Y135.91 E9.77676
G1 X111.607 Y136.05 E9.82809
G1 X110 Y136.1 E9.88156
G0 F6000 X110 Y136.5
G1 F1200 X108.378 Y136.45 E9.93554
G1 X106.809 Y136.307 E9.98794
G1 X105.238 Y136.069 E10.04079
G1 X103.646 Y135.726 E10.09495
G1 X102.115 Y135.3 E10.14781
G1 X100.601 Y134.778 E10.20107
G1 X99.146 Y134.174 E10.25347
G1 X97.658 Y133.45 E10.30851
G1 X96.312 Y132.692 E10.35989
G1 X94.937 Y131.802 E10.41436
G1 X93.66 Y130.862 E10.4671
G1 X92.426 Y129.834 E10.52052
G1 X91.263 Y128.737 E10.5737
G1 X90.162 Y127.569 E10.62708
G1 X89.138 Y126.34 E10.68029
G1 X88.198 Y125.063 E10.73303
G1 X87.306 Y123.684 E10.78765
G1 X86.55 Y122.342 E10.83888
G1 X85.835 Y120.872 E10.89325
G1 X85.212 Y119.369 E10.94737
G1 X84.7 Y117.885 E10.99958
G1 X84.697 Y117.872 E11.00002
G1 X84.272 Y116.347 E11.05268
G1 X83.928 Y114.747 E11.10711
G1 X83.693 Y113.192 E11.15942
G1 X83.55 Y111.622 E11.21185
G1 X83.5 Y110.006 E11.26563
G1 X83.55 Y108.37 E11.32007
G1 X83.693 Y106.809 E11.3722
G1 X83.928 Y105.253 E11.42454
G1 X84.274 Y103.641 E11.47938
G1 X84.7 Y102.115 E11.53207
G1 X85.212 Y100.631 E11.58429
G1 X85.835 Y99.128 E11.6384
G1 X86.55 Y97.658 E11.69277
G1 X87.306 Y96.316 E11.744
G1 X88.198 Y94.937 E11.79863
G1 X89.138 Y93.66 E11.85137
G1 X90.162 Y92.431 E11.90457
G1 X91.263 Y91.263 E11.95796
G1 X92.426 Y90.166 E12.01113
G1 X93.66 Y89.138 E12.06455
G1 X94.937 Y88.198 E12.11729
G1 X96.316 Y87.306 E12.17192
G1 X97.658 Y86.55 E12.22315
G1 X99.146 Y85.826 E12.27818
G1 X100.585 Y85.229 E12.33
G1 X100.601 Y85.222 E12.33058
G1 X102.115 Y84.7 E12.38385
G1 X102.128 Y84.697 E12.38429
G1 X103.646 Y84.274 E12.4367
G1 X105.238 Y83.931 E12.49087
G1 X105.256 Y83.929 E12.49147
G1 X106.809 Y83.693 E12.54372
G1 X108.378 Y83.55 E12.59612
G1 X110 Y83.5 E12.65009
G1 X111.622 Y83.55 E12.70406
G1 X113.191 Y83.693 E12.75647
G1 X114.762 Y83.931 E12.80931
G1 X116.354 Y84.274 E12.86348
G1 X117.885 Y84.7 E12.91633
G1 X119.399 Y85.222 E12.9696
G1 X120.854 Y85.826 E13.022
G1 X122.342 Y86.55 E13.07704
G1 X123.684 Y87.306 E13.12827
G1 X125.063 Y88.198 E13.18289
G1 X126.34 Y89.138 E13.23563
G1 X127.574 Y90.166 E13.28905
G1 X128.737 Y91.263 E13.34222
G1 X129.83 Y92.422 E13.39521
G1 X130.862 Y93.66 E13.44882
G1 X131.802 Y94.937 E13.50156
G1 X132.694 Y96.316 E13.55618
G1 X133.45 Y97.658 E13.60741
G1 X134.166 Y99.129 E13.66182
G1 X134.773 Y100.593 E13.71454
G1 X134.783 Y100.616 E13.71537
G1 X135.299 Y102.111 E13.76797
G1 X135.305 Y102.134 E13.76876
G1 X135.718 Y103.616 E13.81993
G1 X135.725 Y103.64 E13.82076
G1 X136.072 Y105.253 E13.87564
G1 X136.307 Y106.809 E13.92798
G1 X136.447 Y108.345 E13.97928
G1 X136.45 Y108.37 E13.98012
G1 X136.5 Y109.994 E14.03416
G1 X136.45 Y111.622 E14.08833
G1 X136.307 Y113.192 E14.14076
G1 X136.072 Y114.747 E14.19307
G1 X135.728 Y116.347 E14.2475
G1 X135.3 Y117.885 E14.3006
G1 X134.788 Y119.369 E14.35281
G1 X134.165 Y120.872 E14.40693
G1 X133.45 Y122.342 E14.4613
G1 X132.694 Y123.684 E14.51253
G1 X131.802 Y125.063 E14.56715
G1 X130.862 Y126.34 E14.61989
G1 X129.838 Y127.569 E14.6731
G1 X128.737 Y128.737 E14.72649
G1 X127.574 Y129.834 E14.77966
G1 X126.34 Y130.862 E14.83308
G1 X125.063 Y131.802 E14.88582
G1 X123.688 Y132.692 E14.9403
G1 X122.342 Y133.45 E14.99167
G1 X120.854 Y134.174 E15.04671
G1 X119.415 Y134.771 E15.09853
G1 X119.399 Y134.778 E15.09911
G1 X117.885 Y135.3 E15.15237
G1 X117.872 Y135.303 E15.15282
G1 X116.354 Y135.726 E15.20523
G1 X114.762 Y136.069 E15.2594
G1 X114.744 Y136.071 E15.26
G1 X113.191 Y136.307 E15.31224
G1 X111.622 Y136.45 E15.36465
G1 X110 Y136.5 E15.41862
G0 F6000 X110 Y136.9
G1 F1200 X108.363 Y136.85 E15.47309
G1 X106.762 Y136.704 E15.52656
G1 X105.16 Y136.461 E15.58045
G1 X103.556 Y136.116 E15.63502
G1 X101.994 Y135.681 E15.68895
G1 X100.463 Y135.153 E15.74282
G1 X98.971 Y134.534 E15.79654
G1 X97.483 Y133.81 E15.85158
G1 X96.117 Y133.04 E15.90374
G1 X96.097 Y133.029 E15.90449
G1 X94.712 Y132.133 E15.95936
G1 X93.414 Y131.178 E16.01296
G1 X92.161 Y130.134 E16.0672
G1 X90.98 Y129.02 E16.1212
G1 X89.862 Y127.834 E16.17541
G1 X88.822 Y126.586 E16.22944
G1 X87.867 Y125.288 E16.28304
G1 X86.97 Y123.901 E16.33798
G1 X86.19 Y122.517 E16.39082
G1 X85.469 Y121.035 E16.44563
G1 X84.842 Y119.522 E16.50011
G1 X84.319 Y118.006 E16.55344
G1 X84.316 Y117.993 E16.55389
G1 X83.882 Y116.437 E16.60762
G1 X83.537 Y114.831 E16.66225
G1 X83.534 Y114.807 E16.66305
G1 X83.299 Y113.252 E16.71536
G1 X83.296 Y113.238 E16.71584
G1 X83.15 Y111.637 E16.76931
G1 X83.1 Y110.006 E16.82358
G1 X83.15 Y108.358 E16.87842
G1 X83.296 Y106.762 E16.93172
G1 X83.537 Y105.169 E16.98531
G1 X83.883 Y103.557 E17.04015
G1 X84.319 Y101.994 E17.09412
G1 X84.842 Y100.478 E17.14746
G1 X85.469 Y98.965 E17.20193
G1 X86.19 Y97.483 E17.25674
G1 X86.97 Y96.099 E17.30958
G1 X87.867 Y94.712 E17.36452
G1 X88.822 Y93.414 E17.41812
G1 X89.862 Y92.166 E17.47215
G1 X90.98 Y90.98 E17.52636
G1 X92.161 Y89.866 E17.58036
G1 X93.414 Y88.822 E17.6346
G1 X94.712 Y87.867 E17.6882
G1 X96.099 Y86.97 E17.74314
G1 X97.483 Y86.19 E17.79598
G1 X98.971 Y85.466 E17.85102
G1 X100.448 Y84.854 E17.90419
G1 X100.463 Y84.847 E17.90474
G1 X101.994 Y84.319 E17.95861
G1 X102.007 Y84.316 E17.95905
G1 X103.556 Y83.884 E18.01254
G1 X105.16 Y83.539 E18.06711
G1 X105.178 Y83.537 E18.06771
G1 X106.762 Y83.296 E18.121
G1 X108.363 Y83.15 E18.17447
G1 X110 Y83.1 E18.22894
G1 X111.637 Y83.15 E18.28341
G1 X113.238 Y83.296 E18.33689
G1 X114.84 Y83.539 E18.39078
G1 X116.444 Y83.884 E18.44535
G1 X118.006 Y84.319 E18.49928
G1 X119.537 Y84.847 E18.55314
G1 X121.029 Y85.466 E18.60687
G1 X122.517 Y86.19 E18.6619
G1 X123.901 Y86.97 E18.71474
G1 X125.288 Y87.867 E18.76968
G1 X126.586 Y88.822 E18.82328
G1 X127.839 Y89.866 E18.87752
G1 X129.02 Y90.98 E18.93152
G1 X130.13 Y92.157 E18.98533
G1 X131.178 Y93.414 E19.03976
G1 X132.133 Y94.712 E19.09336
G1 X133.03 Y96.099 E19.1483
G1 X133.81 Y97.483 E19.20114
G1 X134.526 Y98.954 E19.25555
G1 X135.151 Y100.463 E19.30988
G1 X135.158 Y100.478 E19.31043
G1 X135.681 Y101.994 E19.36377
G1 X136.114 Y103.545 E19.41733
G1 X136.463 Y105.169 E19.47257
G1 X136.466 Y105.193 E19.47338
G1 X136.704 Y106.762 E19.52616
G1 X136.847 Y108.333 E19.57863
G1 X136.85 Y108.358 E19.57947
G1 X136.9 Y109.994 E19.6339
G1 X136.85 Y111.637 E19.68858
G1 X136.704 Y113.238 E19.74205
G1 X136.463 Y114.831 E19.79563
G1 X136.118 Y116.437 E19.85027
G1 X135.681 Y118.006 E19.90444
G1 X135.158 Y119.522 E19.95778
G1 X134.531 Y121.035 E20.01225
G1 X133.81 Y122.517 E20.06707
G1 X133.03 Y123.901 E20.1199
