;FLAVOR:Marlin
;TIME:5004
;Filament used: 3.23802m
;Layer height: 0.2
;MINX:65.335
;MINY:91.2
;MINZ:0.2
;MAXX:153.8
;MAXY:129.665
;MAXZ:10
;Generated with Creality Slicer 4.8.2-218
M140 S60
M105
M190 S60
M104 S200
M105
M109 S200
M82 ;absolute extrusion mode

G28 ;Home

G92 E0 ;Reset Extruder
G1 Z2.0 F3000 ;Move Z Axis up
G1 X10.1 Y20 Z0.28 F5000.0 ;Move to start position
G1 X10.1 Y200.0 Z0.28 F1500.0 E15 ;Draw the first line
G1 X10.4 Y200.0 Z0.28 F5000.0 ;Move to side a little
G1 X10.4 Y20 Z0.28 F1500.0 E30 ;Draw the second line
G92 E0 ;Reset Extruder
G1 Z2.0 F3000 ;Move Z Axis up

G92 E0
G92 E0
G1 F3600 E-5
;LAYER_COUNT:50
;LAYER:0
M107
;MESH:idle bracket.stl
G0 F6000 X78.093 Y115.521 Z0.2
;TYPE:WALL-INNER
G1 F3600 E0
G1 F1200 X78.953 Y115.113 E0.03166
G1 X79.735 Y114.574 E0.06325
G1 X80.418 Y113.915 E0.09482
G1 X80.99 Y113.157 E0.1264
G1 X81.432 Y112.314 E0.15806
G1 X81.734 Y111.413 E0.18966
G1 X81.885 Y110.474 E0.2213
G1 X81.885 Y109.526 E0.25283
G1 X81.734 Y108.587 E0.28446
G1 X81.432 Y107.686 E0.31607
G1 X80.99 Y106.843 E0.34772
G1 X80.418 Y106.085 E0.37931
G1 X79.735 Y105.426 E0.41087
G1 X78.953 Y104.887 E0.44246
G1 X78.093 Y104.479 E0.47412
G1 X77.178 Y104.215 E0.5058
G1 X77.146 Y104.212 E0.50687
G1 X76.22 Y104.101 E0.53789
G1 X75.29 Y104.14 E0.56885
G1 X74.358 Y104.327 E0.60046
G1 X73.469 Y104.666 E0.63211
G1 X72.646 Y105.142 E0.66373
G1 X71.91 Y105.743 E0.69533
G1 X71.271 Y106.466 E0.72743
G1 X70.772 Y107.258 E0.75856
G1 X70.399 Y108.13 E0.7901
G1 X70.172 Y109.053 E0.82172
G1 X70.096 Y110 E0.85332
G1 X70.175 Y110.964 E0.88549
G1 X70.399 Y111.87 E0.91653
G1 X70.772 Y112.745 E0.94817
G1 X71.292 Y113.561 E0.98035
G1 X71.91 Y114.26 E1.01138
G1 X72.646 Y114.858 E1.04292
G1 X73.469 Y115.334 E1.07454
G1 X74.358 Y115.673 E1.10619
G1 X75.259 Y115.853 E1.13675
G1 X75.29 Y115.86 E1.1378
G1 X76.253 Y115.898 E1.16986
G1 X77.18 Y115.785 E1.20092
G1 X78.093 Y115.521 E1.23253
G0 F6000 X77.951 Y115.146
G1 F1200 X78.752 Y114.765 E1.26203
G1 X79.481 Y114.263 E1.29147
G1 X80.118 Y113.649 E1.3209
G1 X80.651 Y112.942 E1.35035
G1 X81.063 Y112.157 E1.37983
G1 X81.344 Y111.317 E1.40929
G1 X81.485 Y110.442 E1.43877
G1 X81.485 Y109.558 E1.46817
G1 X81.344 Y108.683 E1.49765
G1 X81.063 Y107.843 E1.52711
G1 X80.651 Y107.058 E1.5566
G1 X80.118 Y106.351 E1.58605
G1 X79.481 Y105.737 E1.61547
G1 X78.752 Y105.235 E1.64491
G1 X78.723 Y105.222 E1.64597
G1 X77.981 Y104.869 E1.6733
G1 X77.951 Y104.854 E1.67441
G1 X77.13 Y104.618 E1.70283
G1 X77.098 Y104.608 E1.70394
G1 X77.067 Y104.605 E1.70498
G1 X76.205 Y104.502 E1.73385
G1 X75.338 Y104.538 E1.76271
G1 X74.469 Y104.713 E1.7922
G1 X73.641 Y105.028 E1.82166
G1 X72.874 Y105.472 E1.85114
G1 X72.188 Y106.032 E1.88059
G1 X71.592 Y106.707 E1.91054
G1 X71.127 Y107.444 E1.93953
G1 X70.78 Y108.257 E1.96893
G1 X70.568 Y109.117 E1.99839
G1 X70.497 Y110 E2.02785
G1 X70.571 Y110.899 E2.05785
G1 X70.78 Y111.743 E2.08677
G1 X71.127 Y112.558 E2.11623
G1 X71.612 Y113.319 E2.14625
G1 X72.188 Y113.97 E2.17516
G1 X72.874 Y114.528 E2.20457
G1 X73.641 Y114.972 E2.23405
G1 X74.469 Y115.287 E2.26351
G1 X75.307 Y115.455 E2.29194
G1 X75.338 Y115.462 E2.29299
G1 X76.237 Y115.497 E2.32292
G1 X77.1 Y115.392 E2.35183
G1 X77.951 Y115.146 E2.3813
G0 F6000 X77.809 Y114.771
G1 F1200 X78.551 Y114.418 E2.40863
G1 X79.227 Y113.952 E2.43593
G1 X79.818 Y113.383 E2.46322
G1 X80.312 Y112.727 E2.49053
G1 X80.694 Y112 E2.51785
G1 X80.954 Y111.221 E2.54516
G1 X81.085 Y110.41 E2.57249
G1 X81.085 Y109.59 E2.59976
G1 X80.954 Y108.779 E2.62708
G1 X80.694 Y108 E2.6544
G1 X80.312 Y107.273 E2.68171
G1 X79.818 Y106.617 E2.70903
G1 X79.227 Y106.048 E2.73631
G1 X78.551 Y105.582 E2.76362
G1 X77.809 Y105.229 E2.79095
G1 X77.019 Y105.001 E2.8183
G1 X76.19 Y104.903 E2.84606
G1 X75.386 Y104.936 E2.87283
G1 X74.58 Y105.099 E2.90018
G1 X73.813 Y105.39 E2.92746
G1 X73.102 Y105.802 E2.95479
G1 X72.466 Y106.321 E2.9821
G1 X71.913 Y106.948 E3.0099
G1 X71.482 Y107.63 E3.03674
G1 X71.161 Y108.384 E3.06399
G1 X70.964 Y109.181 E3.0913
G1 X70.898 Y110 E3.11863
G1 X70.967 Y110.834 E3.14646
G1 X71.161 Y111.616 E3.17326
G1 X71.482 Y112.371 E3.20055
G1 X71.932 Y113.077 E3.22839
G1 X72.466 Y113.68 E3.25518
G1 X73.102 Y114.198 E3.28246
G1 X73.813 Y114.61 E3.30979
G1 X74.58 Y114.901 E3.33708
G1 X75.386 Y115.064 E3.36443
G1 X76.22 Y115.096 E3.39219
G1 X77.02 Y114.999 E3.41899
G1 X77.809 Y114.771 E3.44631
G0 F6000 X77.667 Y114.396
;TYPE:WALL-OUTER
G1 F1200 X78.35 Y114.071 E3.47147
G1 X78.973 Y113.641 E3.49664
G1 X79.518 Y113.117 E3.52179
G1 X79.973 Y112.512 E3.54697
G1 X80.325 Y111.843 E3.57211
G1 X80.564 Y111.125 E3.59728
G1 X80.685 Y110.378 E3.62245
G1 X80.685 Y109.622 E3.64759
G1 X80.564 Y108.875 E3.67276
G1 X80.325 Y108.157 E3.69793
G1 X79.973 Y107.488 E3.72307
G1 X79.518 Y106.883 E3.74825
G1 X78.973 Y106.359 E3.7734
G1 X78.35 Y105.929 E3.79858
G1 X77.667 Y105.604 E3.82373
G1 X76.94 Y105.394 E3.8489
G1 X76.175 Y105.304 E3.87452
G1 X75.434 Y105.334 E3.89919
G1 X74.692 Y105.485 E3.92437
G1 X73.985 Y105.753 E3.94952
G1 X73.33 Y106.132 E3.97469
G1 X72.744 Y106.61 E3.99984
G1 X72.234 Y107.189 E4.0255
G1 X71.837 Y107.816 E4.05019
G1 X71.542 Y108.511 E4.0753
G1 X71.36 Y109.246 E4.10048
G1 X71.299 Y110 E4.12564
G1 X71.363 Y110.769 E4.15131
G1 X71.542 Y111.489 E4.17599
G1 X71.837 Y112.184 E4.2011
G1 X72.252 Y112.835 E4.22678
G1 X72.744 Y113.39 E4.25144
G1 X73.33 Y113.868 E4.2766
G1 X73.985 Y114.247 E4.30177
G1 X74.692 Y114.515 E4.32691
G1 X75.434 Y114.666 E4.3521
G1 X76.203 Y114.695 E4.37769
G1 X76.94 Y114.606 E4.40238
G1 X77.667 Y114.396 E4.42755
G0 F6000 X77.823 Y114.807
G1 F3600 E-0.57245
G0 F6000 X80.562 Y114.042
G0 X78.868 Y112.545
G0 X134.585 Y110.72
G0 X133.448 Y112.689
G0 X134.248 Y112.814
;TYPE:WALL-INNER
G1 F3600 E4.42755
G1 F1200 X135 Y112.911 E4.45277
G1 X135.752 Y112.814 E4.47799
G1 X136.456 Y112.523 E4.50333
G1 X137.059 Y112.059 E4.52863
G1 X137.523 Y111.456 E4.55394
G1 X137.814 Y110.752 E4.57928
G1 X137.911 Y110 E4.6045
G1 X137.814 Y109.248 E4.62971
G1 X137.523 Y108.544 E4.65505
G1 X137.059 Y107.941 E4.68036
G1 X136.456 Y107.477 E4.70566
G1 X135.752 Y107.186 E4.731
G1 X135 Y107.089 E4.75622
G1 X134.248 Y107.186 E4.78144
G1 X133.544 Y107.477 E4.80677
G1 X132.941 Y107.941 E4.83208
G1 X132.477 Y108.544 E4.85739
G1 X132.186 Y109.248 E4.88272
G1 X132.089 Y110 E4.90794
G1 X132.186 Y110.752 E4.93316
G1 X132.477 Y111.456 E4.9585
G1 X132.941 Y112.059 E4.9838
G1 X133.544 Y112.523 E5.00911
G1 X134.248 Y112.814 E5.03445
G0 F6000 X134.352 Y112.424
G1 F1200 X135 Y112.508 E5.05618
G1 X135.648 Y112.424 E5.07791
G1 X136.254 Y112.174 E5.09972
G1 X136.774 Y111.774 E5.12154
G1 X137.174 Y111.254 E5.14336
G1 X137.424 Y110.648 E5.16516
G1 X137.508 Y110 E5.18689
G1 X137.424 Y109.352 E5.20863
G1 X137.174 Y108.746 E5.23043
G1 X136.774 Y108.226 E5.25225
G1 X136.254 Y107.826 E5.27407
G1 X135.648 Y107.576 E5.29587
G1 X135 Y107.492 E5.31761
G1 X134.352 Y107.576 E5.33934
G1 X133.746 Y107.826 E5.36114
G1 X133.226 Y108.226 E5.38296
G1 X132.826 Y108.746 E5.40478
G1 X132.576 Y109.352 E5.42659
G1 X132.492 Y110 E5.44832
G1 X132.576 Y110.648 E5.47005
G1 X132.826 Y111.254 E5.49186
G1 X133.226 Y111.774 E5.51368
G1 X133.746 Y112.174 E5.5355
G1 X134.352 Y112.424 E5.5573
G0 F6000 X134.456 Y112.034
G1 F1200 X135 Y112.105 E5.57555
G1 X135.544 Y112.034 E5.59379
G1 X136.052 Y111.824 E5.61208
G1 X136.489 Y111.489 E5.63039
G1 X136.824 Y111.052 E5.6487
G1 X137.034 Y110.544 E5.66699
G1 X137.105 Y110 E5.68523
G1 X137.034 Y109.456 E5.70348
G1 X136.824 Y108.948 E5.72176
G1 X136.489 Y108.511 E5.74008
G1 X136.052 Y108.176 E5.75839
G1 X135.544 Y107.966 E5.77668
G1 X135 Y107.895 E5.79492
G1 X134.456 Y107.966 E5.81317
G1 X133.948 Y108.176 E5.83145
G1 X133.511 Y108.511 E5.84977
G1 X133.176 Y108.948 E5.86808
G1 X132.966 Y109.456 E5.88636
G1 X132.895 Y110 E5.90461
G1 X132.966 Y110.544 E5.92286
G1 X133.176 Y111.052 E5.94114
G1 X133.511 Y111.489 E5.95945
G1 X133.948 Y111.824 E5.97777
G1 X134.456 Y112.034 E5.99605
G0 F6000 X134.56 Y111.644
;TYPE:WALL-OUTER
G1 F1200 X135 Y111.702 E6.01081
G1 X135.44 Y111.644 E6.02557
G1 X135.851 Y111.474 E6.04037
G1 X136.204 Y111.204 E6.05515
G1 X136.474 Y110.851 E6.06993
G1 X136.644 Y110.44 E6.08472
G1 X136.702 Y110 E6.09948
G1 X136.644 Y109.56 E6.11424
G1 X136.474 Y109.149 E6.12904
G1 X136.204 Y108.796 E6.14382
G1 X135.851 Y108.526 E6.1586
G1 X135.44 Y108.356 E6.17339
G1 X135 Y108.298 E6.18815
G1 X134.56 Y108.356 E6.20292
G1 X134.149 Y108.526 E6.21771
G1 X133.796 Y108.796 E6.23249
G1 X133.526 Y109.149 E6.24727
G1 X133.356 Y109.56 E6.26206
G1 X133.298 Y110 E6.27683
G1 X133.356 Y110.44 E6.29159
G1 X133.526 Y110.851 E6.30638
G1 X133.796 Y111.204 E6.32116
G1 X134.149 Y111.474 E6.33594
G1 X134.56 Y111.644 E6.35074
G0 F6000 X134.447 Y112.069
G1 F3600 E1.35074
G0 F6000 X133.708 Y111.445
G0 X132 Y109.199
G0 X134.199 Y109.782
G0 X116.415 Y97.72
G0 X117.552 Y99.689
G0 X116 Y99.911
;TYPE:WALL-INNER
G1 F3600 E6.35074
G1 F1200 X116.752 Y99.814 E6.37595
G1 X117.456 Y99.523 E6.40129
G1 X118.059 Y99.059 E6.4266
G1 X118.523 Y98.456 E6.4519
G1 X118.814 Y97.752 E6.47724
G1 X118.911 Y97 E6.50246
G1 X118.814 Y96.248 E6.52768
G1 X118.523 Y95.544 E6.55301
G1 X118.059 Y94.941 E6.57832
G1 X117.456 Y94.477 E6.60363
G1 X116.752 Y94.186 E6.62896
G1 X116 Y94.089 E6.65418
G1 X115.248 Y94.186 E6.6794
G1 X114.544 Y94.477 E6.70474
G1 X113.941 Y94.941 E6.73004
G1 X113.477 Y95.544 E6.75535
G1 X113.186 Y96.248 E6.78069
G1 X113.089 Y97 E6.80591
G1 X113.186 Y97.752 E6.83113
G1 X113.477 Y98.456 E6.85646
G1 X113.941 Y99.059 E6.88177
G1 X114.544 Y99.523 E6.90707
G1 X115.248 Y99.814 E6.93241
G1 X116 Y99.911 E6.95763
G0 F6000 X116 Y99.508
G1 F1200 X116.648 Y99.424 E6.97936
G1 X117.254 Y99.174 E7.00117
G1 X117.774 Y98.774 E7.02299
G1 X118.174 Y98.254 E7.04481
G1 X118.424 Y97.648 E7.06661
G1 X118.508 Y97 E7.08834
G1 X118.424 Y96.352 E7.11008
G1 X118.174 Y95.746 E7.13188
G1 X117.774 Y95.226 E7.1537
G1 X117.254 Y94.826 E7.17552
G1 X116.648 Y94.576 E7.19732
G1 X116 Y94.492 E7.21906
G1 X115.352 Y94.576 E7.24079
G1 X114.746 Y94.826 E7.26259
G1 X114.226 Y95.226 E7.28441
G1 X113.826 Y95.746 E7.30623
G1 X113.576 Y96.352 E7.32804
G1 X113.492 Y97 E7.34977
G1 X113.576 Y97.648 E7.3715
G1 X113.826 Y98.254 E7.39331
G1 X114.226 Y98.774 E7.41513
G1 X114.746 Y99.174 E7.43695
G1 X115.352 Y99.424 E7.45875
G1 X116 Y99.508 E7.48048
G0 F6000 X116 Y99.105
G1 F1200 X116.544 Y99.034 E7.49873
G1 X117.052 Y98.824 E7.51701
G1 X117.489 Y98.489 E7.53533
G1 X117.824 Y98.052 E7.55364
G1 X118.034 Y97.544 E7.57192
G1 X118.105 Y97 E7.59017
G1 X118.034 Y96.456 E7.60842
G1 X117.824 Y95.948 E7.6267
G1 X117.489 Y95.511 E7.64501
G1 X117.052 Y95.176 E7.66333
G1 X116.544 Y94.966 E7.68161
G1 X116 Y94.895 E7.69986
G1 X115.456 Y94.966 E7.71811
G1 X114.948 Y95.176 E7.73639
G1 X114.511 Y95.511 E7.7547
G1 X114.176 Y95.948 E7.77302
G1 X113.966 Y96.456 E7.7913
G1 X113.895 Y97 E7.80955
G1 X113.966 Y97.544 E7.82779
G1 X114.176 Y98.052 E7.84608
G1 X114.511 Y98.489 E7.86439
G1 X114.948 Y98.824 E7.8827
G1 X115.456 Y99.034 E7.90099
G1 X116 Y99.105 E7.91923
G0 F6000 X116 Y98.702
;TYPE:WALL-OUTER
G1 F1200 X116.44 Y98.644 E7.934
G1 X116.851 Y98.474 E7.94879
G1 X117.204 Y98.204 E7.96357
G1 X117.474 Y97.851 E7.97835
G1 X117.644 Y97.44 E7.99314
G1 X117.702 Y97 E8.00791
G1 X117.644 Y96.56 E8.02267
G1 X117.474 Y96.149 E8.03746
G1 X117.204 Y95.796 E8.05224
G1 X116.851 Y95.526 E8.06702
G1 X116.44 Y95.356 E8.08182
G1 X116 Y95.298 E8.09658
G1 X115.56 Y95.356 E8.11134
G1 X115.149 Y95.526 E8.12613
G1 X114.796 Y95.796 E8.14091
G1 X114.526 Y96.149 E8.15569
G1 X114.356 Y96.56 E8.17049
G1 X114.298 Y97 E8.18525
G1 X114.356 Y97.44 E8.20001
G1 X114.526 Y97.851 E8.2148
G1 X114.796 Y98.204 E8.22958
G1 X115.149 Y98.474 E8.24437
G1 X115.56 Y98.644 E8.25916
G1 X116 Y98.702 E8.27392
G0 F6000 X116 Y99.142
G1 F3600 E3.27392
G0 F6000 X116 Y100.103
G0 X116 Y97.829
G0 X116 Y109.171
G0 X116 Y106.897
G0 X117.683 Y109.029
G0 X117.877 Y109.498
G0 X117.944 Y110
G0 X117.877 Y110.502
G0 X117.683 Y110.971
G0 X116 Y112.911
;TYPE:WALL-INNER
G1 F3600 E8.27392
G1 F1200 X116.752 Y112.814 E8.29914
G1 X117.456 Y112.523 E8.32447
G1 X118.059 Y112.059 E8.34978
G1 X118.523 Y111.456 E8.37509
G1 X118.814 Y110.752 E8.40042
G1 X118.911 Y110 E8.42564
G1 X118.814 Y109.248 E8.45086
G1 X118.523 Y108.544 E8.4762
G1 X118.059 Y107.941 E8.5015
G1 X117.456 Y107.477 E8.52681
G1 X116.752 Y107.186 E8.55215
G1 X116 Y107.089 E8.57737
G1 X115.248 Y107.186 E8.60259
G1 X114.544 Y107.477 E8.62792
G1 X113.941 Y107.941 E8.65323
G1 X113.477 Y108.544 E8.67853
G1 X113.186 Y109.248 E8.70387
G1 X113.089 Y110 E8.72909
G1 X113.186 Y110.752 E8.75431
G1 X113.477 Y111.456 E8.77965
G1 X113.941 Y112.059 E8.80495
G1 X114.544 Y112.523 E8.83026
G1 X115.248 Y112.814 E8.85559
G1 X116 Y112.911 E8.88081
G0 F6000 X116 Y112.508
G1 F1200 X116.648 Y112.424 E8.90255
G1 X117.254 Y112.174 E8.92435
G1 X117.774 Y111.774 E8.94617
G1 X118.174 Y111.254 E8.96799
G1 X118.424 Y110.648 E8.98979
G1 X118.508 Y110 E9.01153
G1 X118.424 Y109.352 E9.03326
G1 X118.174 Y108.746 E9.05506
G1 X117.774 Y108.226 E9.07688
G1 X117.254 Y107.826 E9.0987
G1 X116.648 Y107.576 E9.12051
G1 X116 Y107.492 E9.14224
G1 X115.352 Y107.576 E9.16397
G1 X114.746 Y107.826 E9.18578
G1 X114.226 Y108.226 E9.2076
G1 X113.826 Y108.746 E9.22942
G1 X113.576 Y109.352 E9.25122
G1 X113.492 Y110 E9.27295
G1 X113.576 Y110.648 E9.29469
G1 X113.826 Y111.254 E9.31649
G1 X114.226 Y111.774 E9.33831
G1 X114.746 Y112.174 E9.36013
G1 X115.352 Y112.424 E9.38193
G1 X116 Y112.508 E9.40367
G0 F6000 X116 Y112.105
G1 F1200 X116.544 Y112.034 E9.42191
G1 X117.052 Y111.824 E9.4402
G1 X117.489 Y111.489 E9.45851
G1 X117.824 Y111.052 E9.47682
G1 X118.034 Y110.544 E9.49511
G1 X118.105 Y110 E9.51335
G1 X118.034 Y109.456 E9.5316
G1 X117.824 Y108.948 E9.54988
G1 X117.489 Y108.511 E9.5682
G1 X117.052 Y108.176 E9.58651
G1 X116.544 Y107.966 E9.60479
G1 X116 Y107.895 E9.62304
G1 X115.456 Y107.966 E9.64129
G1 X114.948 Y108.176 E9.65957
G1 X114.511 Y108.511 E9.67789
G1 X114.176 Y108.948 E9.6962
G1 X113.966 Y109.456 E9.71448
G1 X113.895 Y110 E9.73273
G1 X113.966 Y110.544 E9.75098
G1 X114.176 Y111.052 E9.76926
G1 X114.511 Y111.489 E9.78757
G1 X114.948 Y111.824 E9.80589
G1 X115.456 Y112.034 E9.82417
G1 X116 Y112.105 E9.84242
G0 F6000 X116 Y111.702
;TYPE:WALL-OUTER
G1 F1200 X116.44 Y111.644 E9.85718
G1 X116.851 Y111.474 E9.87197
G1 X117.204 Y111.204 E9.88675
G1 X117.474 Y110.851 E9.90153
G1 X117.644 Y110.44 E9.91633
G1 X117.702 Y110 E9.93109
G1 X117.644 Y109.56 E9.94585
G1 X117.474 Y109.149 E9.96064
G1 X117.204 Y108.796 E9.97542
G1 X116.851 Y108.526 E9.99021
G1 X116.44 Y108.356 E10.005
G1 X116 Y108.298 E10.01976
G1 X115.56 Y108.356 E10.03452
G1 X115.149 Y108.526 E10.04931
G1 X114.796 Y108.796 E10.0641
G1 X114.526 Y109.149 E10.07888
G1 X114.356 Y109.56 E10.09367
G1 X114.298 Y110 E10.10843
G1 X114.356 Y110.44 E10.12319
G1 X114.526 Y110.851 E10.13799
G1 X114.796 Y111.204 E10.15277
G1 X115.149 Y111.474 E10.16755
G1 X115.56 Y111.644 E10.18234
G1 X116 Y111.702 E10.1971
G0 F6000 X116 Y112.142
G1 F3600 E5.1971
G0 F6000 X116 Y113.103
G0 X116 Y110.829
G0 X116 Y122.171
G0 X116 Y119.897
G0 X117.683 Y122.029
G0 X117.877 Y122.498
G0 X117.944 Y123
G0 X117.877 Y123.502
G0 X117.683 Y123.971
G0 X116 Y125.911
;TYPE:WALL-INNER
G1 F3600 E10.1971
G1 F1200 X116.752 Y125.814 E10.22232
G1 X117.456 Y125.523 E10.24766
G1 X118.059 Y125.059 E10.27296
G1 X118.523 Y124.456 E10.29827
G1 X118.814 Y123.752 E10.32361
G1 X118.911 Y123 E10.34883
G1 X118.814 Y122.248 E10.37404
G1 X118.523 Y121.544 E10.39938
G1 X118.059 Y120.941 E10.42469
G1 X117.456 Y120.477 E10.44999
G1 X116.752 Y120.186 E10.47533
G1 X116 Y120.089 E10.50055
