;FLAVOR:Marlin
;TIME:766
;Filament used: 0.469176m
;Layer height: 0.2
;MINX:106.207
;MINY:95.2
;MINZ:0.2
;MAXX:113.798
;MAXY:124.8
;MAXZ:7.8
;Generated with Creality Slicer 4.8.2-218
M140 S60
M105
M190 S60
M104 S200
M105
M109 S200
M82 ;absolute extrusion mode

G28 ;Home

G92 E0 ;Reset Extruder
G1 Z2.0 F3000 ;Move Z Axis up
G1 X10.1 Y20 Z0.28 F5000.0 ;Move to start position
G1 X10.1 Y200.0 Z0.28 F1500.0 E15 ;Draw the first line
G1 X10.4 Y200.0 Z0.28 F5000.0 ;Move to side a little
G1 X10.4 Y20 Z0.28 F1500.0 E30 ;Draw the second line
G92 E0 ;Reset Extruder
G1 Z2.0 F3000 ;Move Z Axis up

G92 E0
G92 E0
G1 F3600 E-5
;LAYER_COUNT:39
;LAYER:0
M107
;MESH:Body1.stl
G0 F6000 X109.73 Y124.4 Z0.2
;TYPE:WALL-INNER
G1 F3600 E0
G1 F1073.3 X109.73 Y124.201 E0.00662
G1 X109.731 Y95.6 E0.95789
G1 X110.296 Y95.6 E0.97668
G1 X110.296 Y124.4 E1.93458
G1 X109.929 Y124.4 E1.94678
G1 X109.73 Y124.4 E1.95106
G0 F6000 X109.33 Y124.8
;TYPE:WALL-OUTER
G1 F1073.3 X109.331 Y95.2 E2.93556
G1 X110.696 Y95.2 E2.98096
G1 X110.696 Y124.8 E3.96546
G1 X109.33 Y124.8 E4.0109
G0 F6000 X109.992 Y124.135
;TYPE:SKIN
G1 F1073.3 X110.012 Y123.871 E4.01567
G1 X110.012 Y96.153 E4.51523
G1 X110.018 Y95.876 E4.52022
G0 F6000 X109.93 Y95.8
G1 F3600 E-0.47978
;MESH:NONMESH
G0 F300 X109.93 Y95.8 Z0.4
G0 F6000 X109.886 Y123.6
;TIME_ELAPSED:13.723354
;LAYER:1
M106 S85
;TYPE:WALL-INNER
;MESH:Body1.stl
G1 F3600 E4.52022
G1 F1200 X109.886 Y96.4 E5.4249
G1 X110.114 Y96.4 E5.43248
G1 X110.113 Y123.6 E5.94831
G1 X109.886 Y123.6 E5.95586
G0 F6600 X109.486 Y124
G1 F1200 X109.486 Y96 E6.88714
G1 X110.315 Y96 E6.91471
G1 X110.514 Y96 E6.92133
G1 X110.514 Y96.199 E6.92561
G1 X110.513 Y124 E7.85028
G1 X109.486 Y124 E7.88444
G0 F6600 X109.086 Y124.4
G1 F1200 X109.086 Y95.6 E8.84233
G1 X110.715 Y95.6 E8.89651
G1 X110.914 Y95.6 E8.90313
G1 X110.914 Y95.799 E8.90741
G1 X110.913 Y124.4 E9.85868
G1 X109.086 Y124.4 E9.91945
G0 F6600 X108.686 Y124.8
;TYPE:WALL-OUTER
G1 F1200 X108.686 Y95.2 E10.90395
G1 X111.314 Y95.2 E10.99136
G1 X111.313 Y124.8 E11.97586
G1 X108.686 Y124.8 E12.06323
G0 F6600 X109.168 Y124.2
G1 F3600 E7.06323
;MESH:NONMESH
G0 F300 X109.168 Y124.2 Z0.6
G0 F6600 X109.473 Y123.6
;TIME_ELAPSED:26.641051
;LAYER:2
M106 S170
;TYPE:WALL-INNER
;MESH:Body1.stl
G1 F3600 E12.06323
G1 F1200 X109.473 Y96.4 E12.96791
G1 X110.336 Y96.4 E12.99661
G1 X110.535 Y96.4 E13.00323
G1 X110.535 Y96.599 E13.00751
G1 X110.534 Y123.6 E13.90557
G1 X109.473 Y123.6 E13.94086
G0 F7200 X109.073 Y124
G1 F1200 X109.073 Y96 E14.87214
G1 X110.736 Y96 E14.92745
G1 X110.935 Y96 E14.93407
G1 X110.935 Y96.199 E14.93835
G1 X110.934 Y124 E15.86302
G1 X109.073 Y124 E15.92492
G0 F7200 X108.673 Y124.4
G1 F1200 X108.673 Y95.6 E16.88281
G1 X111.136 Y95.6 E16.96473
G1 X111.335 Y95.6 E16.97135
G1 X111.335 Y95.799 E16.97563
G1 X111.334 Y124.4 E17.9269
G1 X108.673 Y124.4 E18.01541
G0 F7200 X108.273 Y124.8
;TYPE:WALL-OUTER
G1 F1200 X108.273 Y95.2 E18.99991
G1 X111.735 Y95.2 E19.11505
G1 X111.734 Y124.8 E20.09955
G1 X108.273 Y124.8 E20.21467
G0 F7200 X108.543 Y124.53
G0 X109.583 Y123.21
G0 X109.863 Y123.21
;TYPE:SKIN
G1 F1200 X109.863 Y96.79 E21.0934
G1 X110.145 Y96.79 E21.10278
G1 X110.144 Y123.21 E21.98151
G1 X109.863 Y123.21 E21.99086
G0 F7200 X109.283 Y123.21
G1 F3600 E16.99086
;MESH:NONMESH
G0 F300 X109.283 Y123.21 Z0.8
G0 F7200 X109.147 Y123.6
;TIME_ELAPSED:42.735963
;LAYER:3
M106 S255
;TYPE:WALL-INNER
;MESH:Body1.stl
G1 F3600 E21.99086
G1 F1200 X109.147 Y96.4 E22.89553
G1 X110.66 Y96.4 E22.94586
G1 X110.859 Y96.4 E22.95248
G1 X110.859 Y96.599 E22.95676
G1 X110.858 Y123.6 E23.85481
G1 X109.147 Y123.6 E23.91172
G0 F7200 X108.747 Y124
G1 F1200 X108.747 Y96 E24.84301
G1 X111.06 Y96 E24.91994
G1 X111.259 Y96 E24.92656
G1 X111.259 Y96.199 E24.93084
G1 X111.258 Y124 E25.8555
G1 X108.747 Y124 E25.93902
G0 F7200 X108.347 Y124.4
G1 F1200 X108.347 Y95.6 E26.89691
G1 X111.46 Y95.6 E27.00045
G1 X111.659 Y95.6 E27.00707
G1 X111.659 Y95.799 E27.01135
G1 X111.658 Y124.4 E27.96262
G1 X108.347 Y124.4 E28.07275
G0 F7200 X107.947 Y124.8
;TYPE:WALL-OUTER
G1 F1200 X107.947 Y95.2 E29.05725
G1 X112.059 Y95.2 E29.19401
G1 X112.058 Y124.8 E30.17851
G1 X107.947 Y124.8 E30.31525
G0 F7200 X108.217 Y124.53
G0 X109.257 Y123.21
G0 X109.537 Y123.21
;TYPE:SKIN
G1 F1200 X109.537 Y96.79 E31.19398
G1 X110.469 Y96.79 E31.22498
G1 X110.468 Y123.21 E32.10371
G1 X109.537 Y123.21 E32.13468
G0 F7200 X110.013 Y123.049
G1 F1200 X110.308 Y122.753 E32.14858
G0 F7200 X110.308 Y122.188
G1 F1200 X109.697 Y122.799 E32.17731
G0 F7200 X109.697 Y122.234
G1 F1200 X110.308 Y121.622 E32.20608
G0 F7200 X110.308 Y121.056
G1 F1200 X109.697 Y121.668 E32.23484
G0 F7200 X109.697 Y121.102
G1 F1200 X110.308 Y120.49 E32.2636
G0 F7200 X110.308 Y119.925
G1 F1200 X109.697 Y120.536 E32.29234
G0 F7200 X109.697 Y119.971
G1 F1200 X110.308 Y119.359 E32.32111
G0 F7200 X110.308 Y118.793
G1 F1200 X109.697 Y119.405 E32.34987
G0 F7200 X109.697 Y118.839
G1 F1200 X110.308 Y118.228 E32.37861
G0 F7200 X110.308 Y117.662
G1 F1200 X109.697 Y118.274 E32.40737
G0 F7200 X109.697 Y117.708
G1 F1200 X110.308 Y117.096 E32.43614
G0 F7200 X110.308 Y116.531
G1 F1200 X109.697 Y117.142 E32.46488
G0 F7200 X109.697 Y116.577
G1 F1200 X110.308 Y115.965 E32.49364
G0 F7200 X110.308 Y115.399
G1 F1200 X109.697 Y116.011 E32.5224
G0 F7200 X109.697 Y115.445
G1 F1200 X110.308 Y114.834 E32.55114
G0 F7200 X110.308 Y114.268
G1 F1200 X109.697 Y114.88 E32.5799
G0 F7200 X109.697 Y114.314
G1 F1200 X110.308 Y113.702 E32.60867
G0 F7200 X110.308 Y113.137
G1 F1200 X109.697 Y113.748 E32.63741
G0 F7200 X109.697 Y113.183
G1 F1200 X110.308 Y112.571 E32.66617
G0 F7200 X110.308 Y112.005
G1 F1200 X109.697 Y112.617 E32.69493
G0 F7200 X109.697 Y112.051
G1 F1200 X110.308 Y111.44 E32.72367
G0 F7200 X110.308 Y110.874
G1 F1200 X109.697 Y111.485 E32.75241
G0 F7200 X109.697 Y110.92
G1 F1200 X110.308 Y110.308 E32.78117
G0 F7200 X110.308 Y109.742
G1 F1200 X109.697 Y110.354 E32.80994
G0 F7200 X109.697 Y109.788
G1 F1200 X110.308 Y109.177 E32.83868
G0 F7200 X110.308 Y108.611
G1 F1200 X109.697 Y109.223 E32.86744
G0 F7200 X109.697 Y108.657
G1 F1200 X110.308 Y108.045 E32.8962
G0 F7200 X110.308 Y107.48
G1 F1200 X109.697 Y108.091 E32.92494
G0 F7200 X109.697 Y107.526
G1 F1200 X110.308 Y106.914 E32.95371
G0 F7200 X110.308 Y106.348
G1 F1200 X109.697 Y106.96 E32.98247
G0 F7200 X109.697 Y106.394
G1 F1200 X110.308 Y105.783 E33.01121
G0 F7200 X110.308 Y105.217
G1 F1200 X109.697 Y105.829 E33.03997
G0 F7200 X109.697 Y105.263
G1 F1200 X110.308 Y104.651 E33.06874
G0 F7200 X110.308 Y104.086
G1 F1200 X109.697 Y104.697 E33.09747
G0 F7200 X109.697 Y104.132
G1 F1200 X110.308 Y103.52 E33.12624
G0 F7200 X110.308 Y102.954
G1 F1200 X109.697 Y103.566 E33.155
G0 F7200 X109.697 Y103
G1 F1200 X110.308 Y102.389 E33.18374
G0 F7200 X110.308 Y101.823
G1 F1200 X109.697 Y102.435 E33.2125
G0 F7200 X109.697 Y101.869
G1 F1200 X110.308 Y101.257 E33.24127
G0 F7200 X110.308 Y100.692
G1 F1200 X109.697 Y101.303 E33.27001
G0 F7200 X109.697 Y100.737
G1 F1200 X110.308 Y100.126 E33.29875
G0 F7200 X110.308 Y99.56
G1 F1200 X109.697 Y100.172 E33.32751
G0 F7200 X109.697 Y99.606
G1 F1200 X110.308 Y98.994 E33.35627
G0 F7200 X110.308 Y98.429
G1 F1200 X109.697 Y99.04 E33.38501
G0 F7200 X109.697 Y98.475
G1 F1200 X110.308 Y97.863 E33.41377
G0 F7200 X110.308 Y97.297
G1 F1200 X109.697 Y97.909 E33.44254
G0 F7200 X109.697 Y97.343
G1 F1200 X110.09 Y96.949 E33.46105
G0 F7200 X110.09 Y96.21
G1 F3600 E28.46105
;MESH:NONMESH
G0 F300 X110.09 Y96.21 Z1
G0 F7200 X109.329 Y96.582
G0 X108.876 Y123.6
;TIME_ELAPSED:64.981453
;LAYER:4
;TYPE:WALL-INNER
;MESH:Body1.stl
G1 F3600 E33.46105
G1 F1200 X108.876 Y96.4 E34.36572
G1 X110.925 Y96.4 E34.43387
G1 X111.124 Y96.4 E34.44049
G1 X111.124 Y96.599 E34.44477
G1 X111.123 Y123.6 E35.34283
G1 X108.876 Y123.6 E35.41757
G0 F7200 X108.476 Y124
G1 F1200 X108.476 Y96 E36.34885
G1 X111.325 Y96 E36.44361
G1 X111.524 Y96 E36.45023
G1 X111.524 Y96.199 E36.45451
G1 X111.523 Y124 E37.37917
G1 X108.476 Y124 E37.48052
G0 F7200 X108.076 Y124.4
G1 F1200 X108.076 Y95.6 E38.43841
G1 X111.725 Y95.6 E38.55978
G1 X111.924 Y95.6 E38.56639
G1 X111.924 Y95.799 E38.57068
G1 X111.923 Y124.4 E39.52195
G1 X108.076 Y124.4 E39.6499
G0 F7200 X107.676 Y124.8
;TYPE:WALL-OUTER
G1 F1200 X107.676 Y95.2 E40.6344
G1 X112.324 Y95.2 E40.78899
G1 X112.323 Y124.8 E41.77349
G1 X107.676 Y124.8 E41.92805
G0 F7200 X107.946 Y124.53
G0 X108.956 Y123.433
;TYPE:FILL
G1 F2400 X111.041 Y122.875 E41.99984
G0 F7200 X111.043 Y122.771
G1 F2400 X108.955 Y120.683 E42.09806
G0 F7200 X108.956 Y120.327
G1 F2400 X111.041 Y119.769 E42.16984
G0 F7200 X111.043 Y118.528
G1 F2400 X108.955 Y116.44 E42.26806
G0 F7200 X108.955 Y117.222
G1 F2400 X111.041 Y116.663 E42.33989
G0 F7200 X111.042 Y114.964
G1 F2400 X108.955 Y122.753 E42.60809
G0 F7200 X108.956 Y114.116
G1 F2400 X111.042 Y113.557 E42.67992
G0 F7200 X111.043 Y114.286
G1 F2400 X108.955 Y112.198 E42.77813
G0 F7200 X108.955 Y111.161
G1 F2400 X111.043 Y103.37 E43.0464
G0 F7200 X111.042 Y104.239
G1 F2400 X108.955 Y104.799 E43.11827
G0 F7200 X108.955 Y103.712
G1 F2400 X111.043 Y105.8 E43.21649
G0 F7200 X111.042 Y107.345
G1 F2400 X108.956 Y107.904 E43.28831
G0 F7200 X108.955 Y107.955
G1 F2400 X111.043 Y110.043 E43.38653
G0 F7200 X111.042 Y110.451
G1 F2400 X108.956 Y111.01 E43.45836
G0 F7200 X108.955 Y101.693
G1 F2400 X111.043 Y101.133 E43.53026
G0 F7200 X111.043 Y101.558
G1 F2400 X108.955 Y99.47 E43.62847
G0 F7200 X108.956 Y99.569
G1 F2400 X109.784 Y96.478 E43.7349
G0 F7200 X110.208 Y96.48
G1 F2400 X111.043 Y97.315 E43.77418
G0 F7200 X111.043 Y98.028
G1 F2400 X108.955 Y98.587 E43.84607
G1 F3600 E38.84607
;MESH:NONMESH
G0 F300 X108.955 Y98.587 Z1.2
G0 F7200 X108.649 Y123.6
;TIME_ELAPSED:82.923948
;LAYER:5
;TYPE:WALL-INNER
;MESH:Body1.stl
G1 F3600 E43.84607
G1 F1200 X108.649 Y123.401 E43.85269
G1 X108.65 Y96.4 E44.75075
G1 X111.352 Y96.4 E44.84062
G1 X111.352 Y123.6 E45.74529
G1 X108.848 Y123.6 E45.82857
G1 X108.649 Y123.6 E45.83286
G0 F7200 X108.249 Y124
G1 F1200 X108.249 Y123.801 E45.83948
G1 X108.25 Y96 E46.76414
G1 X111.752 Y96 E46.88062
G1 X111.752 Y124 E47.8119
G1 X108.448 Y124 E47.92179
G1 X108.249 Y124 E47.92608
G0 F7200 X107.849 Y124.4
G1 F1200 X107.849 Y124.201 E47.93269
G1 X107.85 Y95.6 E48.88397
G1 X112.152 Y95.6 E49.02705
G1 X112.152 Y124.4 E49.98494
G1 X108.048 Y124.4 E50.12144
G1 X107.849 Y124.4 E50.12573
G0 F7200 X107.449 Y124.8
;TYPE:WALL-OUTER
G1 F1200 X107.45 Y95.2 E51.11023
G1 X112.552 Y95.2 E51.27992
G1 X112.552 Y124.8 E52.26442
G1 X107.449 Y124.8 E52.43415
G0 F7200 X107.719 Y124.53
G0 X109.179 Y123.52
;TYPE:FILL
G1 F2400 X111.27 Y122.959 E52.50615
G0 F7200 X111.272 Y122.801
G1 F2400 X108.728 Y120.257 E52.62581
G0 F7200 X108.728 Y120.535
G1 F2400 X111.27 Y119.853 E52.71335
G0 F7200 X111.272 Y118.558
G1 F2400 X108.728 Y116.015 E52.83299
G0 F7200 X108.728 Y117.429
G1 F2400 X111.271 Y116.748 E52.92055
G0 F7200 X111.272 Y114.315
G1 F2400 X108.728 Y111.772 E53.04019
G0 F7200 X108.728 Y111.464
G1 F2400 X111.271 Y101.974 E53.36696
G0 F7200 X111.271 Y101.587
G1 F2400 X108.728 Y99.044 E53.48658
G0 F7200 X108.729 Y98.794
G1 F2400 X111.27 Y98.113 E53.57408
G0 F7200 X111.271 Y97.344
G1 F2400 X110.406 Y96.479 E53.61476
G0 F7200 X109.638 Y96.478
G1 F2400 X108.729 Y99.872 E53.73163
G0 F7200 X108.729 Y101.899
G1 F2400 X111.27 Y101.218 E53.81912
G0 F7200 X111.27 Y104.324
G1 F2400 X108.729 Y105.005 E53.90662
G0 F7200 X108.728 Y103.287
G1 F2400 X111.271 Y105.829 E54.02621
G0 F7200 X111.27 Y107.43
G1 F2400 X108.729 Y108.111 E54.11371
G0 F7200 X108.728 Y107.529
G1 F2400 X111.272 Y110.073 E54.23337
G0 F7200 X111.271 Y110.536
G1 F2400 X108.729 Y111.217 E54.3209
G0 F7200 X108.728 Y114.323
G1 F2400 X111.271 Y113.642 E54.40846
G0 F7200 X111.271 Y113.565
G1 F2400 X108.728 Y123.056 E54.73526
G1 F3600 E49.73526
;MESH:NONMESH
G0 F300 X108.728 Y123.056 Z1.4
G0 F7200 X108.456 Y123.6
;TIME_ELAPSED:100.830804
;LAYER:6
;TYPE:WALL-INNER
;MESH:Body1.stl
G1 F3600 E54.73526
G1 F1200 X108.456 Y123.401 E54.74188
G1 X108.457 Y96.4 E55.63994
G1 X111.553 Y96.4 E55.74291
G1 X111.553 Y123.6 E56.64759
G1 X108.655 Y123.6 E56.74398
G1 X108.456 Y123.6 E56.74826
G0 F7200 X108.056 Y124
G1 F1200 X108.056 Y123.801 E56.75488
G1 X108.057 Y96 E57.67954
G1 X111.953 Y96 E57.80912
G1 X111.953 Y124 E58.74041
G1 X108.255 Y124 E58.8634
G1 X108.056 Y124 E58.86769
G0 F7200 X107.656 Y124.4
G1 F1200 X107.656 Y124.201 E58.87431
G1 X107.657 Y95.6 E59.82558
G1 X112.353 Y95.6 E59.98177
G1 X112.353 Y124.4 E60.93966
G1 X107.855 Y124.4 E61.08926
G1 X107.656 Y124.4 E61.09355
G0 F7200 X107.256 Y124.8
;TYPE:WALL-OUTER
G1 F1200 X107.257 Y95.2 E62.07805
G1 X112.753 Y95.2 E62.26084
G1 X112.753 Y124.8 E63.24534
G1 X107.256 Y124.8 E63.42818
G0 F7200 X107.526 Y124.53
G0 X108.536 Y123.229
;TYPE:FILL
G1 F2400 X111.472 Y112.271 E63.8055
G0 F7200 X111.471 Y113.734
G1 F2400 X108.536 Y114.52 E63.90655
G0 F7200 X108.535 Y115.622
G1 F2400 X111.473 Y118.559 E64.04472
G0 F7200 X111.471 Y119.946
G1 F2400 X108.536 Y120.732 E64.14578
G0 F7200 X108.535 Y119.865
G1 F2400 X111.473 Y122.802 E64.28395
G0 F7200 X111.472 Y123.051
G1 F2400 X109.725 Y123.519 E64.34411
G0 F7200 X108.536 Y117.626
G1 F2400 X111.471 Y116.84 E64.44517
G0 F7200 X111.473 Y114.317
G1 F2400 X108.535 Y111.379 E64.58336
G0 F7200 X108.536 Y111.415
G1 F2400 X111.472 Y110.628 E64.68446
G0 F7200 X111.473 Y110.074
G1 F2400 X108.535 Y107.137 E64.82263
G0 F7200 X108.535 Y108.309
G1 F2400 X111.472 Y107.522 E64.92376
G0 F7200 X111.472 Y105.831
G1 F2400 X108.535 Y102.894 E65.06191
G0 F7200 X108.536 Y102.097
G1 F2400 X111.471 Y101.311 E65.16297
G0 F7200 X111.472 Y101.588
G1 F2400 X108.535 Y98.652 E65.30109
G0 F7200 X108.536 Y98.991
G1 F2400 X111.471 Y98.205 E65.40215
G0 F7200 X111.472 Y97.345
G1 F2400 X110.606 Y96.479 E65.44288
G0 F7200 X109.492 Y96.479
G1 F2400 X108.536 Y100.045 E65.56568
G0 F7200 X111.472 Y100.679
G1 F2400 X108.536 Y111.637 E65.943
G0 F7200 X108.535 Y105.203
G1 F2400 X111.471 Y104.417 E66.04409
G1 F3600 E61.04409
;MESH:NONMESH
G0 F300 X111.471 Y104.417 Z1.6
G0 F7200 X108.284 Y123.6
;TIME_ELAPSED:119.754968
;LAYER:7
;TYPE:WALL-INNER
;MESH:Body1.stl
G1 F3600 E66.04409
G1 F1200 X108.284 Y96.4 E66.94876
G1 X111.522 Y96.4 E67.05646
G1 X111.721 Y96.4 E67.06308
G1 X111.721 Y96.599 E67.06736
G1 X111.72 Y123.6 E67.96542
G1 X108.284 Y123.6 E68.0797
G0 F7200 X107.884 Y124
G1 F1200 X107.884 Y96 E69.01098
G1 X111.922 Y96 E69.14529
G1 X112.121 Y96 E69.15191
G1 X112.121 Y96.199 E69.15619
G1 X112.12 Y124 E70.08086
G1 X107.884 Y124 E70.22175
G0 F7200 X107.484 Y124.4
G1 F1200 X107.484 Y95.6 E71.17964
G1 X112.322 Y95.6 E71.34055
G1 X112.521 Y95.6 E71.34717
G1 X112.521 Y95.799 E71.35145
G1 X112.52 Y124.4 E72.30272
G1 X107.484 Y124.4 E72.47022
G0 F7200 X107.084 Y124.8
;TYPE:WALL-OUTER
G1 F1200 X107.084 Y95.2 E73.45472
G1 X112.921 Y95.2 E73.64886
G1 X112.92 Y124.8 E74.63336
G1 X107.084 Y124.8 E74.82747
G0 F7200 X107.354 Y124.53
G0 X108.363 Y123.325
;TYPE:FILL
G1 F2400 X111.639 Y111.097 E75.24852
G0 F7200 X111.639 Y110.73
G1 F2400 X108.363 Y111.608 E75.36132
G0 F7200 X108.363 Y111.733
G1 F2400 X111.64 Y99.505 E75.78238
G0 F7200 X111.639 Y98.307
G1 F2400 X108.363 Y99.185 E75.89518
G0 F7200 X108.363 Y98.278
G1 F2400 X111.64 Y101.555 E76.04932
G0 F7200 X111.639 Y101.413
G1 F2400 X108.364 Y102.29 E76.16209
G0 F7200 X108.363 Y102.521
G1 F2400 X111.64 Y105.798 E76.31623
G0 F7200 X111.639 Y104.518
G1 F2400 X108.364 Y105.396 E76.429
G0 F7200 X108.363 Y106.763
G1 F2400 X111.64 Y110.04 E76.58314
G0 F7200 X111.639 Y107.624
G1 F2400 X108.363 Y108.502 E76.69595
G0 F7200 X108.363 Y111.006
G1 F2400 X111.64 Y114.283 E76.85009
G0 F7200 X111.639 Y113.836
